;FLAVOR:Marlin
;TIME:2814
;Filament used: 2.11982m
;Layer height: 0.2
;MINX:-39.05
;MINY:-11.3
;MINZ:0.28
;MAXX:39.05
;MAXY:11.3
;MAXZ:10.08
;TARGET_MACHINE.NAME:Dreamer NX
;Generated with Cura_SteamEngine 5.6.0
M82 ;absolute extrusion mode
;Start Gcode
G90 ;absolute positioning
M118 X25.00 Y25.00 Z20.00 T0
M140 S40 T0 ;Heat bed up to first layer temperature
M104 S200 T0 ;Set nozzle temperature to first layer temperature
M107 ;start with the fan off
G90
G28
M132 X Y Z A B
G1 Z50.000 F420
G161 X Y F3300
M7 T0
M6 T0
M651
M907 X100 Y100 Z40 A100 B20 ;Digital potentiometer value
M108 T0
;Purge line
G1 X-110.00 Y-60.00 F4800
G1 Z0.28 F420
G1 X-110.00 Y60.00 E17,4 F1200
;Purge line end
G92 E0
G92 E0
G1 F2400 E-1.3
;LAYER_COUNT:50
;LAYER:0
M107
G0 F3000 X37.25 Y11.3 Z0.28
;TYPE:SKIRT
G1 F2400 E0
G1 F1500 X-37.25 Y11.3 E3.46903
G1 X-37.856 Y11.176 E3.49783
G1 X-38.388 Y10.895 E3.52585
G1 X-38.7 Y10.523 E3.54846
G1 X-38.973 Y9.974 E3.57701
G1 X-39.05 Y9.5 E3.59937
G1 X-39.05 Y-9.5 E4.48409
G1 X-38.926 Y-10.106 E4.51289
G1 X-38.645 Y-10.638 E4.54091
G1 X-38.273 Y-10.95 E4.56351
G1 X-37.724 Y-11.223 E4.59206
G1 X-37.25 Y-11.3 E4.61442
G1 X37.25 Y-11.3 E8.08346
G1 X37.856 Y-11.176 E8.11226
G1 X38.388 Y-10.895 E8.14027
G1 X38.7 Y-10.523 E8.16288
G1 X38.973 Y-9.974 E8.19143
G1 X39.05 Y-9.5 E8.21379
G1 X39.05 Y9.5 E9.09851
G1 X38.926 Y10.106 E9.12732
G1 X38.645 Y10.638 E9.15533
G1 X38.273 Y10.95 E9.17794
G1 X37.724 Y11.223 E9.20649
G1 X37.25 Y11.3 E9.22885
G0 F3000 X37.25 Y10.9
G1 F1500 X37.601 Y10.838 E9.24545
G1 X38.095 Y10.592 E9.27114
G1 X38.327 Y10.383 E9.28568
G1 X38.572 Y9.919 E9.31012
G1 X38.65 Y9.5 E9.32996
G1 X38.65 Y-9.5 E10.21468
G1 X38.588 Y-9.851 E10.23128
G1 X38.342 Y-10.345 E10.25698
G1 X38.133 Y-10.577 E10.27152
G1 X37.669 Y-10.822 E10.29595
G1 X37.25 Y-10.9 E10.31579
G1 X-37.25 Y-10.9 E13.78483
G1 X-37.601 Y-10.838 E13.80142
G1 X-38.095 Y-10.592 E13.82712
G1 X-38.327 Y-10.383 E13.84166
G1 X-38.572 Y-9.919 E13.86609
G1 X-38.65 Y-9.5 E13.88594
G1 X-38.65 Y9.5 E14.77066
G1 X-38.588 Y9.851 E14.78725
G1 X-38.342 Y10.345 E14.81295
G1 X-38.133 Y10.577 E14.82749
G1 X-37.669 Y10.822 E14.85192
G1 X-37.25 Y10.9 E14.87177
G1 X37.25 Y10.9 E18.3408
G0 F3000 X37.25 Y10.5
G1 F1500 X-37.25 Y10.5 E21.80983
G1 X-37.588 Y10.43 E21.82591
G1 X-37.851 Y10.293 E21.83972
G1 X-37.99 Y10.155 E21.84884
G1 X-38.196 Y9.773 E21.86904
G1 X-38.25 Y9.5 E21.882
G1 X-38.25 Y-9.5 E22.76672
G1 X-38.18 Y-9.838 E22.7828
G1 X-38.043 Y-10.101 E22.7966
G1 X-37.905 Y-10.24 E22.80572
G1 X-37.523 Y-10.446 E22.82593
G1 X-37.25 Y-10.5 E22.83889
G1 X37.25 Y-10.5 E26.30792
G1 X37.588 Y-10.43 E26.324
G1 X37.851 Y-10.293 E26.3378
G1 X37.99 Y-10.155 E26.34693
G1 X38.196 Y-9.773 E26.36713
G1 X38.25 Y-9.5 E26.38009
G1 X38.25 Y9.5 E27.26481
G1 X38.18 Y9.838 E27.28088
G1 X38.043 Y10.101 E27.29469
G1 X37.905 Y10.24 E27.30381
G1 X37.523 Y10.446 E27.32402
G1 X37.25 Y10.5 E27.33698
G0 F3000 X37.25 Y9.7
G1 F1500 X-37.25 Y9.7 E30.80601
G1 X-37.369 Y9.661 E30.81184
G1 X-37.45 Y9.5 E30.82024
G1 X-37.45 Y-9.5 E31.70496
G1 X-37.411 Y-9.619 E31.71079
G1 X-37.25 Y-9.7 E31.71918
G1 X37.25 Y-9.7 E35.18821
G1 X37.369 Y-9.661 E35.19404
G1 X37.45 Y-9.5 E35.20243
G1 X37.45 Y9.5 E36.08715
G1 X37.411 Y9.619 E36.09299
G1 X37.25 Y9.7 E36.10138
G0 F3000 X37.25 Y10.1
G1 F1500 X-37.25 Y10.1 E39.57041
G1 X-37.494 Y10.041 E39.5821
G1 X-37.646 Y9.95 E39.59035
G1 X-37.807 Y9.68 E39.60499
G1 X-37.85 Y9.5 E39.6136
G1 X-37.85 Y-9.5 E40.49832
G1 X-37.791 Y-9.744 E40.51001
G1 X-37.7 Y-9.896 E40.51826
G1 X-37.43 Y-10.057 E40.5329
G1 X-37.25 Y-10.1 E40.54152
G1 X37.25 Y-10.1 E44.01055
G1 X37.494 Y-10.041 E44.02224
G1 X37.646 Y-9.95 E44.03049
G1 X37.807 Y-9.68 E44.04512
G1 X37.85 Y-9.5 E44.05374
G1 X37.85 Y9.5 E44.93846
G1 X37.791 Y9.744 E44.95015
G1 X37.7 Y9.896 E44.9584
G1 X37.43 Y10.057 E44.97304
G1 X37.25 Y10.1 E44.98166
G1 F2400 E43.68166
;MESH:????????????_?????? (1).stl
G0 F3000 X36.836 Y9.086
G0 X36.65 Y8.9
;TYPE:WALL-INNER
G1 F2400 E44.98166
G1 F1500 X36.65 Y-8.9 E45.8105
G1 X-36.65 Y-8.9 E49.22365
G1 X-36.65 Y8.9 E50.0525
G1 X36.65 Y8.9 E53.46565
G0 F3000 X37.05 Y9.3
;TYPE:WALL-OUTER
G1 F1500 X37.05 Y-9.3 E54.33174
G1 X-37.05 Y-9.3 E57.78215
G1 X-37.05 Y9.3 E58.64824
G1 X37.05 Y9.3 E62.09865
G0 F3000 X37.05 Y9.1
G0 X36.27 Y8.52
;TYPE:SKIN
G1 F1500 X-36.27 Y8.52 E65.47642
G1 X-36.27 Y-8.52 E66.26987
G1 X36.27 Y-8.52 E69.64764
G1 X36.27 Y8.52 E70.44109
G0 F3000 X35.803 Y-8.319
G1 F1500 X36.069 Y-8.053 E70.45861
G0 F3000 X36.069 Y-7.488
G1 F1500 X35.237 Y-8.319 E70.51336
G0 F3000 X34.672 Y-8.319
G1 F1500 X36.069 Y-6.922 E70.60536
G0 F3000 X36.069 Y-6.356
G1 F1500 X34.106 Y-8.319 E70.73463
G0 F3000 X33.54 Y-8.319
G1 F1500 X36.069 Y-5.791 E70.90113
G0 F3000 X36.069 Y-5.225
G1 F1500 X32.975 Y-8.319 E71.10488
G0 F3000 X32.409 Y-8.319
G1 F1500 X36.069 Y-4.659 E71.34589
G0 F3000 X36.069 Y-4.094
G1 F1500 X31.843 Y-8.319 E71.62415
G0 F3000 X31.278 Y-8.319
G1 F1500 X36.069 Y-3.528 E71.93965
G0 F3000 X36.069 Y-2.962
G1 F1500 X30.712 Y-8.319 E72.29241
G0 F3000 X30.146 Y-8.319
G1 F1500 X36.069 Y-2.397 E72.68242
G0 F3000 X36.069 Y-1.831
G1 F1500 X29.581 Y-8.319 E73.10967
G0 F3000 X29.015 Y-8.319
G1 F1500 X36.069 Y-1.265 E73.57418
G0 F3000 X36.069 Y-.7
G1 F1500 X28.449 Y-8.319 E74.07594
G0 F3000 X27.884 Y-8.319
G1 F1500 X36.069 Y-.134 E74.61494
G0 F3000 X36.069 Y0.431
G1 F1500 X27.318 Y-8.319 E75.19117
G0 F3000 X26.752 Y-8.319
G1 F1500 X36.069 Y0.997 E75.80468
G0 F3000 X36.069 Y1.562
G1 F1500 X26.186 Y-8.319 E76.45543
G0 F3000 X25.621 Y-8.319
G1 F1500 X36.069 Y2.128 E77.14341
G0 F3000 X36.069 Y2.694
G1 F1500 X25.055 Y-8.319 E77.86867
G0 F3000 X24.489 Y-8.319
G1 F1500 X36.069 Y3.259 E78.63117
G0 F3000 X36.069 Y3.825
G1 F1500 X23.924 Y-8.319 E79.4309
G0 F3000 X23.358 Y-8.319
G1 F1500 X36.069 Y4.391 E80.26791
G0 F3000 X36.069 Y4.956
G1 F1500 X22.792 Y-8.319 E81.14216
G0 F3000 X22.227 Y-8.319
G1 F1500 X36.069 Y5.522 E82.05364
G0 F3000 X36.069 Y6.088
G1 F1500 X21.661 Y-8.319 E83.0024
G0 F3000 X21.095 Y-8.319
G1 F1500 X36.069 Y6.653 E83.9884
G0 F3000 X36.069 Y7.219
G1 F1500 X20.53 Y-8.319 E85.01164
G0 F3000 X19.964 Y-8.319
G1 F1500 X36.069 Y7.785 E86.07215
G0 F3000 X36.038 Y8.319
G1 F1500 X19.398 Y-8.319 E87.16785
G0 F3000 X18.833 Y-8.319
G1 F1500 X35.472 Y8.319 E88.26353
G0 F3000 X34.907 Y8.319
G1 F1500 X18.267 Y-8.319 E89.35923
G0 F3000 X17.701 Y-8.319
G1 F1500 X34.341 Y8.319 E90.45494
G0 F3000 X33.775 Y8.319
G1 F1500 X17.136 Y-8.319 E91.55061
G0 F3000 X16.57 Y-8.319
G1 F1500 X33.209 Y8.319 E92.64629
G0 F3000 X32.644 Y8.319
G1 F1500 X16.004 Y-8.319 E93.74199
G0 F3000 X15.438 Y-8.319
G1 F1500 X32.078 Y8.319 E94.8377
G0 F3000 X31.512 Y8.319
G1 F1500 X14.873 Y-8.319 E95.93337
G0 F3000 X14.307 Y-8.319
G1 F1500 X30.947 Y8.319 E97.02908
G0 F3000 X30.381 Y8.319
G1 F1500 X13.741 Y-8.319 E98.12479
G0 F3000 X13.176 Y-8.319
G1 F1500 X29.815 Y8.319 E99.22046
G0 F3000 X29.25 Y8.319
G1 F1500 X12.61 Y-8.319 E100.31617
G0 F3000 X12.044 Y-8.319
G1 F1500 X28.684 Y8.319 E101.41187
G0 F3000 X28.118 Y8.319
G1 F1500 X11.479 Y-8.319 E102.50755
G0 F3000 X10.913 Y-8.319
G1 F1500 X27.553 Y8.319 E103.60325
G0 F3000 X26.987 Y8.319
G1 F1500 X10.347 Y-8.319 E104.69896
G0 F3000 X9.782 Y-8.319
G1 F1500 X26.421 Y8.319 E105.79463
G0 F3000 X25.856 Y8.319
G1 F1500 X9.216 Y-8.319 E106.89034
G0 F3000 X8.65 Y-8.319
G1 F1500 X25.29 Y8.319 E107.98605
G0 F3000 X24.724 Y8.319
G1 F1500 X8.085 Y-8.319 E109.08172
G0 F3000 X7.519 Y-8.319
G1 F1500 X24.159 Y8.319 E110.17743
G0 F3000 X23.593 Y8.319
G1 F1500 X6.953 Y-8.319 E111.27313
G0 F3000 X6.388 Y-8.319
G1 F1500 X23.027 Y8.319 E112.36881
G0 F3000 X22.461 Y8.319
G1 F1500 X5.822 Y-8.319 E113.46448
G0 F3000 X5.256 Y-8.319
G1 F1500 X21.896 Y8.319 E114.56019
G0 F3000 X21.33 Y8.319
G1 F1500 X4.69 Y-8.319 E115.65589
G0 F3000 X4.125 Y-8.319
G1 F1500 X20.764 Y8.319 E116.75157
G0 F3000 X20.199 Y8.319
G1 F1500 X3.559 Y-8.319 E117.84727
G0 F3000 X2.993 Y-8.319
G1 F1500 X19.633 Y8.319 E118.94298
G0 F3000 X19.067 Y8.319
G1 F1500 X2.428 Y-8.319 E120.03865
G0 F3000 X1.862 Y-8.319
G1 F1500 X18.502 Y8.319 E121.13436
G0 F3000 X17.936 Y8.319
G1 F1500 X1.296 Y-8.319 E122.23007
G0 F3000 X0.731 Y-8.319
G1 F1500 X17.37 Y8.319 E123.32574
G0 F3000 X16.805 Y8.319
G1 F1500 X0.165 Y-8.319 E124.42145
G0 F3000 X-.4 Y-8.319
G1 F1500 X16.239 Y8.319 E125.51712
G0 F3000 X15.673 Y8.319
G1 F1500 X-.965 Y-8.319 E126.61276
G0 F3000 X-1.531 Y-8.319
G1 F1500 X15.108 Y8.319 E127.70844
G0 F3000 X14.542 Y8.319
G1 F1500 X-2.097 Y-8.319 E128.80411
G0 F3000 X-2.662 Y-8.319
G1 F1500 X13.976 Y8.319 E129.89975
G0 F3000 X13.41 Y8.319
G1 F1500 X-3.228 Y-8.319 E130.99539
G0 F3000 X-3.794 Y-8.319
G1 F1500 X12.845 Y8.319 E132.09106
G0 F3000 X12.279 Y8.319
G1 F1500 X-4.36 Y-8.319 E133.18674
G0 F3000 X-4.925 Y-8.319
G1 F1500 X11.713 Y8.319 E134.28238
G0 F3000 X11.148 Y8.319
G1 F1500 X-5.491 Y-8.319 E135.37805
G0 F3000 X-6.057 Y-8.319
G1 F1500 X10.582 Y8.319 E136.47373
G0 F3000 X10.016 Y8.319
G1 F1500 X-6.622 Y-8.319 E137.56937
G0 F3000 X-7.188 Y-8.319
G1 F1500 X9.451 Y8.319 E138.66504
G0 F3000 X8.885 Y8.319
G1 F1500 X-7.754 Y-8.319 E139.76071
G0 F3000 X-8.319 Y-8.319
G1 F1500 X8.319 Y8.319 E140.85636
G0 F3000 X7.754 Y8.319
G1 F1500 X-8.885 Y-8.319 E141.95203
G0 F3000 X-9.451 Y-8.319
G1 F1500 X7.188 Y8.319 E143.0477
G0 F3000 X6.622 Y8.319
G1 F1500 X-10.016 Y-8.319 E144.14334
G0 F3000 X-10.582 Y-8.319
G1 F1500 X6.057 Y8.319 E145.23902
G0 F3000 X5.491 Y8.319
G1 F1500 X-11.148 Y-8.319 E146.33469
G0 F3000 X-11.713 Y-8.319
G1 F1500 X4.925 Y8.319 E147.43033
G0 F3000 X4.36 Y8.319
G1 F1500 X-12.279 Y-8.319 E148.526
G0 F3000 X-12.845 Y-8.319
G1 F1500 X3.794 Y8.319 E149.62168
G0 F3000 X3.228 Y8.319
G1 F1500 X-13.41 Y-8.319 E150.71732
G0 F3000 X-13.976 Y-8.319
G1 F1500 X2.662 Y8.319 E151.81296
G0 F3000 X2.097 Y8.319
G1 F1500 X-14.542 Y-8.319 E152.90863
G0 F3000 X-15.108 Y-8.319
G1 F1500 X1.531 Y8.319 E154.00431
G0 F3000 X0.965 Y8.319
G1 F1500 X-15.673 Y-8.319 E155.09995
G0 F3000 X-16.239 Y-8.319
G1 F1500 X0.4 Y8.319 E156.19562
G0 F3000 X-.165 Y8.319
G1 F1500 X-16.805 Y-8.319 E157.29133
G0 F3000 X-17.37 Y-8.319
G1 F1500 X-.731 Y8.319 E158.387
G0 F3000 X-1.296 Y8.319
G1 F1500 X-17.936 Y-8.319 E159.48271
G0 F3000 X-18.502 Y-8.319
G1 F1500 X-1.862 Y8.319 E160.57841
G0 F3000 X-2.428 Y8.319
G1 F1500 X-19.067 Y-8.319 E161.67409
G0 F3000 X-19.633 Y-8.319
G1 F1500 X-2.993 Y8.319 E162.7698
G0 F3000 X-3.559 Y8.319
G1 F1500 X-20.199 Y-8.319 E163.8655
G0 F3000 X-20.764 Y-8.319
G1 F1500 X-4.125 Y8.319 E164.96118
G0 F3000 X-4.69 Y8.319
G1 F1500 X-21.33 Y-8.319 E166.05688
G0 F3000 X-21.896 Y-8.319
G1 F1500 X-5.256 Y8.319 E167.15259
G0 F3000 X-5.822 Y8.319
G1 F1500 X-22.461 Y-8.319 E168.24826
G0 F3000 X-23.027 Y-8.319
G1 F1500 X-6.388 Y8.319 E169.34394
G0 F3000 X-6.953 Y8.319
G1 F1500 X-23.593 Y-8.319 E170.43964
G0 F3000 X-24.159 Y-8.319
G1 F1500 X-7.519 Y8.319 E171.53535
G0 F3000 X-8.085 Y8.319
G1 F1500 X-24.724 Y-8.319 E172.63102
G0 F3000 X-25.29 Y-8.319
G1 F1500 X-8.65 Y8.319 E173.72673
G0 F3000 X-9.216 Y8.319
G1 F1500 X-25.856 Y-8.319 E174.82244
G0 F3000 X-26.421 Y-8.319
G1 F1500 X-9.782 Y8.319 E175.91811
G0 F3000 X-10.347 Y8.319
G1 F1500 X-26.987 Y-8.319 E177.01382
G0 F3000 X-27.553 Y-8.319
G1 F1500 X-10.913 Y8.319 E178.10952
G0 F3000 X-11.479 Y8.319
G1 F1500 X-28.118 Y-8.319 E179.2052
G0 F3000 X-28.684 Y-8.319
G1 F1500 X-12.044 Y8.319 E180.3009
G0 F3000 X-12.61 Y8.319
G1 F1500 X-29.25 Y-8.319 E181.39661
G0 F3000 X-29.815 Y-8.319
G1 F1500 X-13.176 Y8.319 E182.49228
G0 F3000 X-13.741 Y8.319
G1 F1500 X-30.381 Y-8.319 E183.58799
G0 F3000 X-30.947 Y-8.319
G1 F1500 X-14.307 Y8.319 E184.6837
G0 F3000 X-14.873 Y8.319
G1 F1500 X-31.512 Y-8.319 E185.77937
G0 F3000 X-32.078 Y-8.319
G1 F1500 X-15.438 Y8.319 E186.87508
G0 F3000 X-16.004 Y8.319
G1 F1500 X-32.644 Y-8.319 E187.97078
G0 F3000 X-33.209 Y-8.319
G1 F1500 X-16.57 Y8.319 E189.06646
G0 F3000 X-17.136 Y8.319
G1 F1500 X-33.775 Y-8.319 E190.16213
G0 F3000 X-34.341 Y-8.319
G1 F1500 X-17.701 Y8.319 E191.25784
G0 F3000 X-18.267 Y8.319
G1 F1500 X-34.907 Y-8.319 E192.35354
G0 F3000 X-35.472 Y-8.319
G1 F1500 X-18.833 Y8.319 E193.44922
G0 F3000 X-19.398 Y8.319
G1 F1500 X-36.038 Y-8.319 E194.54492
G0 F3000 X-36.069 Y-7.785
G1 F1500 X-19.964 Y8.319 E195.60543
G0 F3000 X-20.53 Y8.319
G1 F1500 X-36.069 Y-7.219 E196.62867
G0 F3000 X-36.069 Y-6.653
G1 F1500 X-21.095 Y8.319 E197.61467
G0 F3000 X-21.661 Y8.319
G1 F1500 X-36.069 Y-6.088 E198.56343
G0 F3000 X-36.069 Y-5.522
G1 F1500 X-22.227 Y8.319 E199.47491
G0 F3000 X-22.792 Y8.319
G1 F1500 X-36.069 Y-4.956 E200.34916
G0 F3000 X-36.069 Y-4.391
G1 F1500 X-23.358 Y8.319 E201.18617
G0 F3000 X-23.924 Y8.319
G1 F1500 X-36.069 Y-3.825 E201.9859
G0 F3000 X-36.069 Y-3.259
G1 F1500 X-24.489 Y8.319 E202.7484
G0 F3000 X-25.055 Y8.319
G1 F1500 X-36.069 Y-2.694 E203.47366
G0 F3000 X-36.069 Y-2.128
G1 F1500 X-25.621 Y8.319 E204.16164
G0 F3000 X-26.186 Y8.319
G1 F1500 X-36.069 Y-1.562 E204.81239
G0 F3000 X-36.069 Y-.997
G1 F1500 X-26.752 Y8.319 E205.4259
G0 F3000 X-27.318 Y8.319
G1 F1500 X-36.069 Y-.431 E206.00213
G0 F3000 X-36.069 Y0.134
G1 F1500 X-27.884 Y8.319 E206.54113
G0 F3000 X-28.449 Y8.319
G1 F1500 X-36.069 Y0.7 E207.04289
G0 F3000 X-36.069 Y1.265
G1 F1500 X-29.015 Y8.319 E207.5074
G0 F3000 X-29.581 Y8.319
G1 F1500 X-36.069 Y1.831 E207.93465
G0 F3000 X-36.069 Y2.397
G1 F1500 X-30.146 Y8.319 E208.32466
G0 F3000 X-30.712 Y8.319
G1 F1500 X-36.069 Y2.962 E208.67742
G0 F3000 X-36.069 Y3.528
G1 F1500 X-31.278 Y8.319 E208.99292
G0 F3000 X-31.843 Y8.319
G1 F1500 X-36.069 Y4.094 E209.27118
G0 F3000 X-36.069 Y4.659
G1 F1500 X-32.409 Y8.319 E209.51219
G0 F3000 X-32.975 Y8.319
G1 F1500 X-36.069 Y5.225 E209.71594
G0 F3000 X-36.069 Y5.791
G1 F1500 X-33.54 Y8.319 E209.88244
G0 F3000 X-34.106 Y8.319
G1 F1500 X-36.069 Y6.356 E210.01171
G0 F3000 X-36.069 Y6.922
G1 F1500 X-34.672 Y8.319 E210.10371
G0 F3000 X-35.237 Y8.319
G1 F1500 X-36.069 Y7.488 E210.15846
G0 F3000 X-36.069 Y8.053
G1 F1500 X-35.803 Y8.319 E210.17598
G0 F3000 X-35.803 Y8.3
M104 S200
;MESH:NONMESH
G0 F600 X-35.803 Y8.3 Z0.48
G0 F3000 X36.38 Y8.63
G0 X36.65 Y8.9
;TIME_ELAPSED:198.537477
;LAYER:1
M140 S35
M106 S255
;TYPE:WALL-INNER
;MESH:????????????_?????? (1).stl
G1 F2250 X36.65 Y-8.9 E210.76801
G1 X-36.65 Y-8.9 E213.20598
G1 X-36.65 Y8.9 E213.79801
G1 X36.65 Y8.9 E216.23598
G0 F4500 X37.05 Y9.3
;TYPE:WALL-OUTER
G1 F1500 X37.05 Y-9.3 E216.85461
G1 X-37.05 Y-9.3 E219.31919
G1 X-37.05 Y9.3 E219.93783
G1 X37.05 Y9.3 E222.4024
G0 F4500 X37.05 Y9.1
G0 X36.27 Y8.52
;TYPE:SKIN
G1 F1500 X-36.27 Y8.52 E224.81509
G1 X-36.27 Y-8.52 E225.38185
G1 X36.27 Y-8.52 E227.79454
G1 X36.27 Y8.52 E228.36129
G0 F4500 X35.803 Y8.319
G1 F1500 X36.069 Y8.053 E228.3738
G0 F4500 X36.069 Y7.488
G1 F1500 X35.237 Y8.319 E228.41291
G0 F4500 X34.672 Y8.319
G1 F1500 X36.069 Y6.922 E228.47862
G0 F4500 X36.069 Y6.356
G1 F1500 X34.106 Y8.319 E228.57096
G0 F4500 X33.54 Y8.319
G1 F1500 X36.069 Y5.791 E228.68989
G0 F4500 X36.069 Y5.225
G1 F1500 X32.975 Y8.319 E228.83542
G0 F4500 X32.409 Y8.319
G1 F1500 X36.069 Y4.659 E229.00758
G0 F4500 X36.069 Y4.094
G1 F1500 X31.843 Y8.319 E229.20633
G0 F4500 X31.278 Y8.319
G1 F1500 X36.069 Y3.528 E229.43169
G0 F4500 X36.069 Y2.962
G1 F1500 X30.712 Y8.319 E229.68366
G0 F4500 X30.146 Y8.319
G1 F1500 X36.069 Y2.397 E229.96224
G0 F4500 X36.069 Y1.831
G1 F1500 X29.581 Y8.319 E230.26741
G0 F4500 X29.015 Y8.319
G1 F1500 X36.069 Y1.265 E230.59921
G0 F4500 X36.069 Y0.7
G1 F1500 X28.449 Y8.319 E230.95761
G0 F4500 X27.884 Y8.319
G1 F1500 X36.069 Y0.134 E231.34261
G0 F4500 X36.069 Y-.431
G1 F1500 X27.318 Y8.319 E231.75421
G0 F4500 X26.752 Y8.319
G1 F1500 X36.069 Y-.997 E232.19242
G0 F4500 X36.069 Y-1.562
